img/calculator.svg

<svg xmlns='http://www.w3.org/2000/svg' width='16' height='16' viewBox='0 0 16 16'><path d='m13 14h-10v-12h10zm-1-11h-8v3h8zm-7 5h-1v1h1zm0 2h-1v1h1zm0 2h-1v1h1zm2-4h-1v1h1zm0 2h-1v1h1zm0 2h-1v1h1zm2-4h-1v1h1zm0 2h-1v1h1zm0 2h-1v1h1zm3-4h-2v1h2zm0 2h-2v1h2zm0 2h-2v1h2z'/></svg>

<svg xmlns='http://www.w3.org/2000/svg' width='16' height='16' viewBox='0 0 16 16'><path d='M13 14H3V2h10v12zM12 3H4v3h8V3zM5 8H4v1h1V8zm0 2H4v1h1v-1zm0 2H4v1h1v-1zm2-4H6v1h1V8zm0 2H6v1h1v-1zm0 2H6v1h1v-1zm2-4H8v1h1V8zm0 2H8v1h1v-1zm0 2H8v1h1v-1zm3-4h-2v1h2V8zm0 2h-2v1h2v-1zm0 2h-2v1h2v-1z'/></svg>
